X:1
T:Captain Charles Leith Hay's Reel (Royal Aberdeenshire Highlanders)
T:Captain Charles Leith Hay's Reel (Royal Aberdeenshire Highlanders)
T:Alexander Walker
C:Alexander Walker
L:1/8
M:2/2
K:E
V:1 treble 
V:1
 f | e2 ce BGGc | BGeG (B2 B)d | e2 ce BGGc | BGFE (F2 F)d | e2 ce BGGc | BGeG (B2 B)e | %7
 gbfg efgf | ecBG (F2 F) || f | geBe ceBe | defg (a2 a)b | geBe ceBG | AGFE DFFf | geBe ceBe | %15
 defg (a2 a)b | gefd ecBG | AcBd eagf || %18

